papirus/32x32/apps/keurocalc.svg

<svg height="32" width="32" xmlns="http://www.w3.org/2000/svg" xmlns:xlink="http://www.w3.org/1999/xlink"><clipPath id="a"><circle cx="286" cy="26" r="10"/></clipPath><circle cx="16" cy="16" fill="#578cff" r="14"/><circle clip-path="url(#a)" cx="286" cy="26" opacity="0" r="10" stroke-width=".45455" transform="matrix(1.4 0 0 1.4 -384.4 -20.4)"/><circle clip-path="url(#a)" cx="286" cy="26" opacity="0" r="10" stroke-width=".90908998" transform="matrix(1.4 0 0 1.4 -384.4 -20.4)"/><path d="m16 2a14 14 0 0 0 -14 14 14 14 0 0 0  .0215.586 14 14 0 0 1  13.978-13.586 14 14 0 0 1  13.979 13.414 14 14 0 0 0  .021-.414 14 14 0 0 0 -14-14z" fill="#fff" opacity=".2"/><path d="m29.979 15.414a14 14 0 0 1 -13.979 13.586 14 14 0 0 1 -13.978-13.414 14 14 0 0 0 -.022.414 14 14 0 0 0  14 14 14 14 0 0 0  14-14 14 14 0 0 0 -.021-.586z" opacity=".3"/><path d="m17 9a8 8 0 0 0 -7.4121 5h-1.5879l-1 2h2.0723a8 8 0 0 0 -.0723 1l-1 2h1.2656a8 8 0 0 0 7.7344 6 8 8 0 0 0  6.244-3h-2.933a6 6 0 0 1 -3.311 1 6 6 0 0 1 -5.65-4h6.65l1-2h-8a6 6 0 0 1  .09-1h7.91l1-2h-8.189a6 6 0 0 1 5.189-3 6 6 0 0 1  3.309 1h2.927a8 8 0 0 0 -6.236-3z" opacity=".2"/><path d="m17 8a8 8 0 0 0 -7.4121 5h-1.5879l-1 2h2.0723a8 8 0 0 0 -.0723 1l-1 2h1.2656a8 8 0 0 0 7.7344 6 8 8 0 0 0  6.244-3h-2.933a6 6 0 0 1 -3.311 1 6 6 0 0 1 -5.65-4h6.65l1-2h-8a6 6 0 0 1  .09-1h7.91l1-2h-8.189a6 6 0 0 1 5.189-3 6 6 0 0 1  3.309 1h2.927a8 8 0 0 0 -6.236-3z" fill="#fff"/></svg>

<?xml version="1.0" encoding="UTF-8" standalone="no"?>
<!-- Created with Inkscape (http://www.inkscape.org/) -->

<svg
   xmlns:dc="http://purl.org/dc/elements/1.1/"
   xmlns:cc="http://creativecommons.org/ns#"
   xmlns:rdf="http://www.w3.org/1999/02/22-rdf-syntax-ns#"
   xmlns:svg="http://www.w3.org/2000/svg"
   xmlns="http://www.w3.org/2000/svg"
   xmlns:sodipodi="http://sodipodi.sourceforge.net/DTD/sodipodi-0.dtd"
   xmlns:inkscape="http://www.inkscape.org/namespaces/inkscape"
   id="svg2817"
   height="32"
   width="32"
   version="1.0"
   inkscape:version="0.91 r13725"
   sodipodi:docname="keurocalc.svg">
  <sodipodi:namedview
     pagecolor="#ffffff"
     bordercolor="#666666"
     borderopacity="1"
     objecttolerance="10"
     gridtolerance="10"
     guidetolerance="10"
     inkscape:pageopacity="0"
     inkscape:pageshadow="2"
     inkscape:window-width="1535"
     inkscape:window-height="876"
     id="namedview14"
     showgrid="false"
     inkscape:zoom="7.375"
     inkscape:cx="16"
     inkscape:cy="20.937679"
     inkscape:window-x="65"
     inkscape:window-y="24"
     inkscape:window-maximized="1"
     inkscape:current-layer="svg2817" />
  <metadata
     id="metadata57">
    <rdf:RDF>
      <cc:Work
         rdf:about="">
        <dc:format>image/svg+xml</dc:format>
        <dc:type
           rdf:resource="http://purl.org/dc/dcmitype/StillImage" />
        <dc:title></dc:title>
      </cc:Work>
    </rdf:RDF>
  </metadata>
  <defs
     id="defs2819">
    <clipPath
       id="clipPath4186"
       clipPathUnits="userSpaceOnUse">
      <circle
         id="path4188"
         style="color:#000000"
         cx="286"
         cy="26"
         r="10"
         fill="url(#linearGradient4190)" />
    </clipPath>
  </defs>
  <circle
     id="path4230"
     style="color:#000000;fill:#578cff;fill-opacity:1"
     cy="16"
     cx="16"
     r="14" />
  <circle
     id="path4240"
     style="color:#000000;opacity:0;stroke-width:0.45455"
     clip-path="url(#clipPath4186)"
     transform="matrix(1.4,0,0,1.4,-384.4,-20.4)"
     cy="26"
     cx="286"
     r="10" />
  <circle
     id="path4242"
     style="color:#000000;opacity:0;stroke-width:0.90908998"
     clip-path="url(#clipPath4186)"
     transform="matrix(1.4,0,0,1.4,-384.4,-20.4)"
     cy="26"
     cx="286"
     r="10" />
  <path
     inkscape:connector-curvature="0"
     id="circle4234"
     style="color:#000000;opacity:0.2;fill:#ffffff"
     d="M 16,2 A 14,14 0 0 0 2,16 14,14 0 0 0 2.0215,16.586 14,14 0 0 1 15.9995,3 14,14 0 0 1 29.9785,16.414 14,14 0 0 0 29.9995,16 a 14,14 0 0 0 -14,-14 z" />
  <path
     inkscape:connector-curvature="0"
     id="circle4239"
     style="color:#000000;opacity:0.3"
     d="M 29.979,15.414 A 14,14 0 0 1 16,29 14,14 0 0 1 2.022,15.586 14,14 0 0 0 2,16 14,14 0 0 0 16,30 14,14 0 0 0 30,16 14,14 0 0 0 29.979,15.414 Z" />
  <path
     d="M 17,9 A 8,8 0 0 0 9.5879,14 L 8,14 7,16 9.0723,16 A 8,8 0 0 0 9,17 l -1,2 1.2656,0 A 8,8 0 0 0 17,25 8,8 0 0 0 23.244,22 l -2.933,0 A 6,6 0 0 1 17,23 6,6 0 0 1 11.35,19 l 6.65,0 1,-2 -8,0 a 6,6 0 0 1 0.09,-1 l 7.91,0 1,-2 -8.189,0 A 6,6 0 0 1 17,11 a 6,6 0 0 1 3.309,1 l 2.927,0 A 8,8 0 0 0 17,9 Z"
     id="path4148"
     style="opacity:0.2;fill:#000000;fill-opacity:1"
     inkscape:connector-curvature="0" />
  <path
     inkscape:connector-curvature="0"
     style="fill:#ffffff;fill-opacity:1"
     id="path4736"
     d="M 17,8 A 8,8 0 0 0 9.5879,13 L 8,13 7,15 9.0723,15 A 8,8 0 0 0 9,16 l -1,2 1.2656,0 A 8,8 0 0 0 17,24 8,8 0 0 0 23.244,21 l -2.933,0 A 6,6 0 0 1 17,22 6,6 0 0 1 11.35,18 l 6.65,0 1,-2 -8,0 a 6,6 0 0 1 0.09,-1 l 7.91,0 1,-2 -8.189,0 A 6,6 0 0 1 17,10 a 6,6 0 0 1 3.309,1 l 2.927,0 A 8,8 0 0 0 17,8 Z" />
</svg>
